X:131
T: Richmudis von Adocht
N: Q1112F
O: Mitteleuropa, Deutschland (DDR) , Brandenburg
N: Melodievergleich zu Q0112A, anderes Lied. Schusspause ergaenzt.
R: ???
M: 3/4
L: 1/8
K: G
D | G2F2G2 | A2G2B2 | c2c2B2 | A4
GB | d2d2e2 | d2d2c2 | B2B2A2 | G4
GB | d2d2e2 | d2d2c2 | B2B2A2 | G4z

@@@ Tune index: 1424
